X:670
T: Mooney's
S: B.Breathnach: "Ceol Rince na hEireann" II/166 (gan ainm)
Z: B.Black
L: 1/8
M: 4/4
R: reel
K: G
G2 BG cGBG|AD (3DDD FGAF|(3GGG BG cGBG|Addc BGGD|
(3GGG BG c2 (3BBG|AD (3DDD FGAF|(3GGG BG cGBG|Addc BG G2||
g2 dg Bgdg|(3gag dg eaaf|(3ggg dg BgdB|cAdc BG G2|
g2 dg Bgdg|(3gag dg eaaf|(3gfg dg BgdB|c2 dc BGGD ||

